X:108
T:Steyrer Tanz in G, nr. 76
C:traditionell
R:Steirer
A:Hallstatt, Salzkammergut
B:Corpus Musicae Popularis Austriacae (COMPA), 5.Band: J.M.Schmalnauer " Tanz Musik", Verlag Boehlau, Wien 1996
S:manuscript des Johann Michael Schmalnauer um 1820
N:im der quelle in G
Z:abc transcription Simon Wascher
F:http://simonwascher.info/TradArchiv/
M:3/4
L:1/8
K:G
V:1
%violino 1mo
P:h:Ap:
BDBD Td2 | cDcD TF2 | ADAD d2 | BDBD G2 |\
BDBD Td2 | cDcD TF2 | ADADdB | "in D"G6 :|
V:2
%violino 2do
GDGD TB2 | eDeD A2 | cDcD TB2 | DdDd B2 |\
GDGD TB2 | eDeD A2 | cDcD BG | "in D"B,6 :|



